X: 10663
T: HORNPIPE
N: Arranged by W.B. Laybourn
R: hornpipe, reel
B: K\"ohler's Violin Repository, v.1, 1885 p.66 #3
F: http://www.archive.org/details/klersviolinrepos01edin
Z: 2012 John Chambers <jc:trillian.mit.edu>
M: C|
L: 1/8
K: C
u((3GAB) |\
(cB)cd (cd)ef | (g^f)ga (ge)dc | (AG)AB (cd)cA | (GE)cA (GE)CE |\
(FE)FG (AG)AB | (cB)cd (eg)ag | (fe)dc (Ac)Bd | edcB c2 :|
|: ugf) |\
egce egcg | dgBg dgBg | ceAe ceAe | GcEc GcEc |\
(FE)FG (AG)AB | (cB)cd (eg)ag | (fe)dc (Ac)Bd | edcB c2 :|

%%sep 2 1 500

